img/scroll-solid.svg

<svg viewBox="0 0 576 512" xmlns="http://www.w3.org/2000/svg"><path d="m0 80v48c0 17.7 14.3 32 32 32h16 48v-80c0-26.5-21.5-48-48-48s-48 21.5-48 48zm112-48c10 13.4 16 30 16 48v304c0 35.3 28.7 64 64 64s64-28.7 64-64v-5.3c0-32.4 26.3-58.7 58.7-58.7h165.3v-192c0-53-43-96-96-96zm352 448c61.9 0 112-50.1 112-112 0-8.8-7.2-16-16-16h-245.3c-14.7 0-26.7 11.9-26.7 26.7v5.3c0 53-43 96-96 96h176z"/></svg>

<svg xmlns="http://www.w3.org/2000/svg" viewBox="0 0 576 512"><!--!Font Awesome Free 6.5.1 by @fontawesome - https://fontawesome.com License - https://fontawesome.com/license/free Copyright 2024 Fonticons, Inc.--><path d="M0 80v48c0 17.7 14.3 32 32 32H48 96V80c0-26.5-21.5-48-48-48S0 53.5 0 80zM112 32c10 13.4 16 30 16 48V384c0 35.3 28.7 64 64 64s64-28.7 64-64v-5.3c0-32.4 26.3-58.7 58.7-58.7H480V128c0-53-43-96-96-96H112zM464 480c61.9 0 112-50.1 112-112c0-8.8-7.2-16-16-16H314.7c-14.7 0-26.7 11.9-26.7 26.7V384c0 53-43 96-96 96H368h96z"/></svg>
